img/img_elements_visuels/poisson_09_rouge_rose_ligne.svg

<svg xmlns="http://www.w3.org/2000/svg" width="884" height="512" fill="none"><path fill="#1E0500" d="M669.308 104.483C633.44-13.864 500.627 76.51 496.502 84.735c-.368 21.261.127 67.486 5.048 82.306 4.92 14.82 103.485 63.903 152.152 86.592 17.158-10.267 44.3-54.472 15.606-149.15Z"/><path fill="#F14424" fill-rule="evenodd" d="M572.054 46.906c11.505-2.566 23.345-3.672 34.754-2.33l-33.3 98.057 13.069 4.438L620.4 47.473c9.553 3.044 18.541 8.262 26.452 16.311l-55.928 86.774 11.601 7.477 53.448-82.925c5.254 7.922 9.774 17.618 13.336 29.373a132.81 132.81 0 0 1 .252.833l-71.474 58.913 8.779 10.65 66.738-55.01c2.549 10.02 4.438 19.414 5.762 28.204l-63.681 32.914 6.337 12.261 59.088-30.54c4.774 55.229-14.251 83.052-27.407 90.925-48.667-22.689-147.231-71.772-152.152-86.592-4.921-14.82-5.415-61.046-5.047-82.306 1.023-2.04 9.961-9.132 23.373-16.841v79.328h13.802v-86.61c7.393-3.568 15.523-6.967 24.041-9.75l-10.239 91.097 13.716 1.542 10.857-96.595Z" clip-rule="evenodd"/><path fill="#1E0500" d="M325.45 36.96c-68.539-95.883-111.012 66.352-110.165 76.692 8.282 21.01 27.054 65.971 35.891 77.74 8.837 11.768 86.792 5.034 124.665.197 6.05-19.582 4.441-77.921-50.391-154.628Z"/><path fill="#F14424" fill-rule="evenodd" d="M267.099 11.408c5.669-3.337 11.751-5.058 18.222-4.551l2.443 57.888 9.193-.388-2.333-55.276c5.884 2.342 12.047 6.55 18.473 13.017l-9.454 45.67 9.01 1.866 8.061-38.943a144.41 144.41 0 0 1 4.734 6.27c54.832 76.707 56.441 135.046 50.391 154.628-37.873 4.837-115.828 11.571-124.665-.197-8.837-11.769-27.609-56.73-35.891-77.74-.39-4.758 8.393-41.68 24.668-70.814l12.439 40.01 8.787-2.732-14.826-47.686c3.865-5.674 8.062-10.768 12.574-14.894l10.237 52.126 9.029-1.773-11.092-56.48Z" clip-rule="evenodd"/><path fill="#1E0500" d="M266.838 425.562c-7.361-20.243-10.735-34.505-11.502-39.105 90.48 1.533 271.439 5.98 271.439 11.501 0 6.901-2.3 23.004-13.802 46.007-11.501 23.003-55.208 59.809-62.109 64.409-6.901 4.601-13.802 4.601-20.703 0-6.901-4.6-13.802-6.901-23.003-4.6-9.201 2.3-11.502 6.901-18.403 4.6-6.901-2.3-18.402-6.901-39.105-23.003-20.703-16.102-36.806 2.3-50.608 0s-23.003-34.505-32.204-59.809Z"/><path fill="#F14424" fill-rule="evenodd" d="M431.63 390.951c12.701.464 24.741.954 35.718 1.466l-56.31 110.637c-1.201.141-2.44.366-3.725.681l37.059-108.43-12.742-4.354Zm-3.418 116.188a36.971 36.971 0 0 0-2.952-1.6l57.189-112.364c26.831 1.454 44.326 3.067 44.326 4.783 0 6.901-2.3 23.004-13.802 46.007-11.501 23.003-55.208 59.809-62.109 64.409-2.984 1.989-5.968 3.119-8.952 3.388l75.068-103.394-11.169-8.109-77.599 106.88ZM287.643 387.056c10.532.212 21.656.449 33.112.711l3.926 91.711c-2.729.578-5.366 1.414-7.922 2.282l-29.116-94.704Zm57.664 95.386c-2.328-1.332-4.595-2.252-6.806-2.846l-3.917-91.504c32.306.778 66.368 1.739 96.695 2.846L390.96 508.906a12.431 12.431 0 0 1-2.205-.532 80.073 80.073 0 0 1-9.162-3.668l26.209-109.829-13.425-3.204-25.31 106.062a188.093 188.093 0 0 1-8.963-6.046l11.81-99.097-13.705-1.634-10.902 91.484Zm-72.19-95.668c-6.231-.116-12.179-.223-17.781-.317.767 4.6 4.141 18.862 11.502 39.105 1.271 3.497 2.543 7.126 3.827 10.79 8.005 22.844 16.483 47.036 28.377 49.019 1.447.241 2.92.255 4.42.104l-30.345-98.701Z" clip-rule="evenodd"/><path fill="#F14424" d="M484.441 75.333C333.053 19.795 75.694 90.478 0 151.065c5.046 38.71 25.231 126.222 90.833 171.667 77.173 53.461 262.405 95.929 439.024 95.929C701.43 368.167 723.647 249.05 741.8 297.483c15.139 40.391 23.549 80.782 25.231 95.929 18.461-13.464 106.88-51.499 111.018-95.929 28.259-121.174-63.92-168.298-111.018-176.712 1.682 43.757-7.065 121.173-55.509 80.782-48.444-40.391-171.572-100.976-227.081-126.22Z"/><ellipse cx="34.938" cy="37.788" fill="#fff" rx="34.938" ry="37.788" transform="matrix(.98201 -.18882 .20845 .97803 69.01 137.414)"/><ellipse cx="27.051" cy="31.169" fill="#000" rx="27.051" ry="31.169" transform="matrix(.98498 -.17267 .19076 .98164 78.21 142.091)"/><path fill="#FFD3D3" d="M239.236 170.225c7.361-51.527-28.371-87.412-46.007-96.614l34.505-6.9c5.368 6.9 21.163 30.824 41.406 71.31 25.304 50.607-13.802 105.815-29.904 144.92-16.102 39.106-75.911 71.311-89.713 69.01-11.042-1.84-39.873-17.635-52.908-25.303 1.534 0 11.042-1.84 36.806-9.202 32.204-9.201 96.614-82.812 105.815-147.221ZM403.755 158.712c7.304-51.522-28.151-94.303-45.65-103.503l42.155 2.3c5.326 6.9 13.081 28.52 33.167 69.002 25.108 50.601-13.695 105.803-29.672 144.904-15.978 39.101-54.21 133.444-67.905 131.144-10.956-1.84-58.376-6.135-71.31-13.802 1.522 0 33.177-50.759 50.197-71.341 22.825-27.601 79.888-94.303 89.018-158.704ZM519.878 195.529c7.398-47.08 10.825-97.408-6.901-105.815l46.006 20.703c5.395 6.305-15.746 18.216 4.601 55.208 25.433 46.239 12.286 92.828-3.899 128.559-16.185 35.73-39.737 126.579-53.609 124.477-11.099-1.681-60.509.105-73.611-6.901 1.541 0 49.468-52.502 66.709-71.31 23.122-25.222 11.455-86.071 20.704-144.921ZM632.592 149.522c.97.331 1.857.88 2.664 1.628l38.742 23.676c5.463 4.585-39.004 3.004-18.402 29.904 25.752 33.625-11.502 69.01-3.948 93.488 9.06 29.353 8.548 53.734-7.554 65.235-9.198 6.57-55.744 41.9-69.01 36.805 1.561 0 22.485-57.026 39.942-70.702 23.412-18.341 10.665-21.311 18.857-62.717 5.636-28.493 15.516-102.588 1.373-115.689l-2.664-1.628Z"/><path fill="#1E0500" d="m729.205 285.242 2.3-71.31 16.103-6.901c2.3-.767 9.201-6.901 13.802-25.304 4.498-17.992 2.3-48.307 4.6-62.109 23.004 2.3 63.49 22.083 78.212 36.805 18.402 18.403 43.818 63.234 39.105 112.717-4.6 48.307-18.402 55.208-23.003 64.409-4.601 9.201-92.013 64.409-92.013 59.809 0-4.601-20.703-78.212-25.304-92.014-3.68-11.041-10.735-15.335-13.802-16.102Z"/><path fill="#F14424" fill-rule="evenodd" d="m742.415 212.332 3.047-4.382-13.957 5.982-2.3 71.31c3.067.767 10.122 5.061 13.802 16.102 4.601 13.802 25.304 87.413 25.304 92.014 0 1.774 13.003-5.349 29.244-15.298l-59.327-93.337 10.974-6.975 59.388 93.432c13.349-8.461 27.359-17.824 37.458-25.246L749.1 277.547l7.571-10.732-.296-.105 4.274-12.104-.094-.001.035-13.113-3.552-11.637-.126.077-7.005-11.463.71-.433-8.202-5.704Zm117.909 121.217c-.405.81-1.453 1.978-3.027 3.43l-98.306-69.345 116.13 40.998c-3.64 9.445-7.649 14.768-10.781 18.926l-.001.001c-1.637 2.174-3.035 4.03-4.015 5.99Zm-96.754-78.936 115.594 40.809c1.701-7.074 3.154-15.681 4.163-26.282.456-4.786.63-9.528.556-14.206l-120.313-.321Zm111.165-47.563c3.838 10.524 6.789 22.008 8.217 34.079l-118.805-.316 110.588-33.763Zm-113.438 20.202 108.138-33.015c-4.315-9.3-9.207-17.562-14.105-24.451l-94.033 57.466Zm38.632-97.632-40.078 57.637a93.014 93.014 0 0 0 1.559-5.53c2.649-10.598 2.976-25.471 3.266-38.727.203-9.249.389-17.71 1.334-23.382 9.378.938 21.661 4.781 33.919 10.002Zm-46.915 86.951 57.193-82.25c14.074 6.885 26.983 15.071 34.015 22.102.87.87 1.756 1.8 2.653 2.786l-93.861 57.362Z" clip-rule="evenodd"/></svg>

<svg width="884" height="512" viewBox="0 0 884 512" fill="none" xmlns="http://www.w3.org/2000/svg">
<path d="M669.308 104.483C633.44 -13.8638 500.627 76.5101 496.502 84.7352C496.134 105.996 496.629 152.221 501.55 167.041C506.47 181.861 605.035 230.944 653.702 253.633C670.86 243.366 698.002 199.161 669.308 104.483Z" fill="#1E0500"/>
<path fill-rule="evenodd" clip-rule="evenodd" d="M572.054 46.906C583.559 44.3402 595.399 43.2343 606.808 44.5756L573.508 142.633L586.577 147.071L620.4 47.4731C629.953 50.5174 638.941 55.7349 646.852 63.7843L590.924 150.558L602.525 158.035L655.973 75.1101C661.227 83.0318 665.747 92.7279 669.309 104.483C669.369 104.68 669.429 104.877 669.488 105.074C669.512 105.155 669.536 105.235 669.561 105.316L598.087 164.229L606.866 174.879L673.604 119.869C676.153 129.889 678.042 139.283 679.366 148.073L615.685 180.987L622.022 193.248L681.11 162.708C685.884 217.937 666.859 245.76 653.703 253.633C605.036 230.944 506.472 181.861 501.551 167.041C496.63 152.221 496.136 105.995 496.504 84.7351C497.527 82.6952 506.465 75.6025 519.877 67.894V147.222H533.679V60.6113C541.072 57.0443 549.202 53.645 557.72 50.8615L547.481 141.959L561.197 143.501L572.054 46.906Z" fill="#F14424"/>
<path d="M325.45 36.9608C256.911 -58.9234 214.438 103.312 215.285 113.652C223.567 134.662 242.339 179.623 251.176 191.392C260.013 203.16 337.968 196.426 375.841 191.589C381.891 172.007 380.282 113.668 325.45 36.9608Z" fill="#1E0500"/>
<path fill-rule="evenodd" clip-rule="evenodd" d="M267.099 11.4084C272.768 8.07099 278.85 6.34998 285.321 6.85681L287.764 64.7454L296.957 64.3573L294.624 9.08139C300.508 11.4234 306.671 15.6318 313.097 22.0978L303.643 67.7689L312.653 69.6341L320.714 30.6914C322.278 32.6453 323.856 34.7334 325.448 36.9607C380.28 113.668 381.889 172.007 375.839 191.589C337.966 196.426 260.011 203.16 251.174 191.392C242.337 179.623 223.565 134.662 215.283 113.652C214.893 108.894 223.676 71.9719 239.951 42.8378L252.39 82.8479L261.177 80.1162L246.351 32.4303C250.216 26.7556 254.413 21.6615 258.925 17.5364L269.162 69.6621L278.191 67.8891L267.099 11.4084Z" fill="#F14424"/>
<path d="M266.838 425.562C259.477 405.319 256.103 391.057 255.336 386.457C345.816 387.99 526.775 392.437 526.775 397.958C526.775 404.859 524.475 420.962 512.973 443.965C501.472 466.968 457.765 503.774 450.864 508.374C443.963 512.975 437.062 512.975 430.161 508.374C423.26 503.774 416.359 501.473 407.158 503.774C397.957 506.074 395.656 510.675 388.755 508.374C381.854 506.074 370.353 501.473 349.65 485.371C328.947 469.269 312.844 487.671 299.042 485.371C285.24 483.071 276.039 450.866 266.838 425.562Z" fill="#1E0500"/>
<path fill-rule="evenodd" clip-rule="evenodd" d="M431.63 390.951C444.331 391.415 456.371 391.905 467.348 392.417L411.038 503.054C409.837 503.195 408.598 503.42 407.313 503.735L444.372 395.305L431.63 390.951ZM428.212 507.139C427.235 506.553 426.253 506.018 425.26 505.539L482.449 393.175C509.28 394.629 526.775 396.242 526.775 397.958C526.775 404.859 524.475 420.962 512.973 443.965C501.472 466.968 457.765 503.774 450.864 508.374C447.88 510.363 444.896 511.493 441.912 511.762L516.98 408.368L505.811 400.259L428.212 507.139ZM287.643 387.056C298.175 387.268 309.299 387.505 320.755 387.767L324.681 479.478C321.952 480.056 319.315 480.892 316.759 481.76L287.643 387.056ZM345.307 482.442C342.979 481.11 340.712 480.19 338.501 479.596L334.584 388.092C366.89 388.87 400.952 389.831 431.279 390.938L390.96 508.906C390.274 508.81 389.545 508.637 388.755 508.374C386.334 507.567 383.346 506.477 379.593 504.706L405.802 394.877L392.377 391.673L367.067 497.735C364.336 496.012 361.358 494.014 358.104 491.689L369.914 392.592L356.209 390.958L345.307 482.442ZM273.117 386.774C266.886 386.658 260.938 386.551 255.336 386.457C256.103 391.057 259.477 405.319 266.838 425.562C268.109 429.059 269.381 432.688 270.665 436.352C278.67 459.196 287.148 483.388 299.042 485.371C300.489 485.612 301.962 485.626 303.462 485.475L273.117 386.774Z" fill="#F14424"/>
<path d="M484.441 75.333C333.053 19.795 75.6939 90.4776 0 151.065C5.04626 189.775 25.2313 277.287 90.8326 322.732C168.006 376.193 353.238 418.661 529.857 418.661C701.43 368.167 723.647 249.05 741.8 297.483C756.939 337.874 765.349 378.265 767.031 393.412C785.492 379.948 873.911 341.913 878.049 297.483C906.308 176.309 814.129 129.185 767.031 120.771C768.713 164.528 759.966 241.944 711.522 201.553C663.078 161.162 539.95 100.577 484.441 75.333Z" fill="#F14424"/>
<ellipse cx="34.9377" cy="37.7877" rx="34.9377" ry="37.7877" transform="matrix(0.982011 -0.188823 0.208447 0.978034 69.0098 137.414)" fill="white"/>
<ellipse cx="27.0507" cy="31.1693" rx="27.0507" ry="31.1693" transform="matrix(0.98498 -0.172668 0.190758 0.981637 78.2109 142.091)" fill="black"/>
<path d="M239.236 170.225C246.597 118.698 210.865 82.8125 193.229 73.6112L227.734 66.7102C233.102 73.6112 248.897 97.5347 269.14 138.021C294.444 188.628 255.338 243.836 239.236 282.941C223.134 322.047 163.325 354.252 149.523 351.951C138.481 350.111 109.65 334.316 96.6152 326.648C98.1488 326.648 107.657 324.808 133.421 317.446C165.625 308.245 230.035 234.634 239.236 170.225Z" fill="#FFD3D3"/>
<path d="M403.755 158.712C411.059 107.19 375.604 64.4088 358.105 55.2086L400.26 57.5089C405.586 64.4091 413.341 86.0295 433.427 126.511C458.535 177.112 419.732 232.314 403.755 271.415C387.777 310.516 349.545 404.859 335.85 402.559C324.894 400.719 277.474 396.424 264.54 388.757C266.062 388.757 297.717 337.998 314.737 317.416C337.562 289.815 394.625 223.113 403.755 158.712Z" fill="#FFD3D3"/>
<path d="M519.878 195.529C527.276 148.449 530.703 98.1208 512.977 89.7136L558.983 110.417C564.378 116.722 543.237 128.633 563.584 165.625C589.017 211.864 575.87 258.453 559.685 294.184C543.5 329.914 519.948 420.763 506.076 418.661C494.977 416.98 445.567 418.766 432.465 411.76C434.006 411.76 481.933 359.258 499.174 340.45C522.296 315.228 510.629 254.379 519.878 195.529Z" fill="#FFD3D3"/>
<path d="M632.592 149.522C633.562 149.853 634.449 150.402 635.256 151.15L673.998 174.826C679.461 179.411 634.994 177.83 655.596 204.73C681.348 238.355 644.094 273.74 651.648 298.218C660.708 327.571 660.196 351.952 644.094 363.453C634.896 370.023 588.35 405.353 575.084 400.258C576.645 400.258 597.569 343.232 615.026 329.556C638.438 311.215 625.691 308.245 633.883 266.839C639.519 238.346 649.399 164.251 635.256 151.15L632.592 149.522Z" fill="#FFD3D3"/>
<path d="M729.205 285.242L731.505 213.932L747.608 207.031C749.908 206.264 756.809 200.13 761.41 181.727C765.908 163.735 763.71 133.42 766.01 119.618C789.014 121.918 829.5 141.701 844.222 156.423C862.624 174.826 888.04 219.657 883.327 269.14C878.727 317.447 864.925 324.348 860.324 333.549C855.723 342.75 768.311 397.958 768.311 393.358C768.311 388.757 747.608 315.146 743.007 301.344C739.327 290.303 732.272 286.009 729.205 285.242Z" fill="#1E0500"/>
<path fill-rule="evenodd" clip-rule="evenodd" d="M742.415 212.332L745.462 207.95L731.505 213.932L729.205 285.242C732.272 286.009 739.327 290.303 743.007 301.344C747.608 315.146 768.311 388.757 768.311 393.358C768.311 395.132 781.314 388.009 797.555 378.06L738.228 284.723L749.202 277.748L808.59 371.18C821.939 362.719 835.949 353.356 846.048 345.934L749.1 277.547L756.671 266.815L756.375 266.71L760.649 254.606L760.555 254.605L760.59 241.492L757.038 229.855L756.912 229.932L749.907 218.469L750.617 218.036L742.415 212.332ZM860.324 333.549C859.919 334.359 858.871 335.527 857.297 336.979L758.991 267.634L875.121 308.632C871.481 318.077 867.472 323.4 864.34 327.558L864.339 327.559C862.702 329.733 861.304 331.589 860.324 333.549ZM763.57 254.613L879.164 295.422C880.865 288.348 882.318 279.741 883.327 269.14C883.783 264.354 883.957 259.612 883.883 254.934L763.57 254.613ZM874.735 207.05C878.573 217.574 881.524 229.058 882.952 241.129L764.147 240.813L874.735 207.05ZM761.297 227.252L869.435 194.237C865.12 184.937 860.228 176.675 855.33 169.786L761.297 227.252ZM799.929 129.62L759.851 187.257C760.392 185.55 760.914 183.71 761.41 181.727C764.059 171.129 764.386 156.256 764.676 143V143V143C764.879 133.751 765.065 125.29 766.01 119.618C775.388 120.556 787.671 124.399 799.929 129.62ZM753.014 216.571L810.207 134.321C824.281 141.206 837.19 149.392 844.222 156.423C845.092 157.293 845.978 158.223 846.875 159.209L753.014 216.571Z" fill="#F14424"/>
</svg>
